X:1
T:Jesum tradidit impius - Zoilo
T:James Gibb editions
T:#
%%score [ 1 2 3 4 ]
L:1/8
Q:1/4=200
M:none
K:F
V:1 treble nm="S" snm="S"
V:2 treble nm="A" snm="A"
V:3 treble-8 nm="T" snm="T"
V:4 bass nm="B" snm="B"
V:1
"^Jesum tradidit impius""^Annibale Zoilo\n(c.1537-92)" G16 | (G12 ^F2 E2 | ^F8) z8 | =F12 F4 | %4
w: Je-|sum * *||tra- di-|
 F4 E8 E4 | E8 z8 | G8 G4 G4 | A6 A2 A4 G4- | G4 F4 G8 | ^F4 A4 B8- | B4 B4 B4 A4 | G8 (A8 | %12
w: dit im- pi-|us|sum- mis prin-|ci- pi- bus sa\-|* cer- do-|tum, et se\-|* ni- o- ri-|bus po\-|
 G2 A2 B3) B A8 || z8 A8- | A8 A8 | G8 ^F8 | z4 G6 A2 B2 c2 | d4 A4 (F2 E2 F2 G2 | A4) (G8 F4) | %19
w: * * * pu- li:|Pe\-|* trus|au- tem|se- que- ba- tur|e- um a * * *|* lon\- *|
 G8 A8- | A4 B4 A4 G4 | (A2 G2 G8 ^F4) | !fermata!G16 || z16 | z16 | z16 | z16 | z16 | z16 | z16 | %30
w: ge, ut|* vi- de- ret|fi\- * * *|nem.||||||||
 z16 | z16 | z16 | z16 | z16 | z24 | z8 A8- | A8 A8 | G8 ^F8 | z4 G6 A2 B2 c2 | %40
w: ||||||Pe\-|* trus|au- tem|se- que- ba- tur|
 d4 A4 (F2 E2 F2 G2 | A4 (G8 F4) | G8 A8- | A4[Q:1/4=197] B4[Q:1/4=193] A4[Q:1/4=188] G4 | %44
w: e- um a * * *|* lon\- *|ge, ut|* vi- de- ret|
[Q:1/4=185] A2[Q:1/4=183] G2[Q:1/4=178] G8[Q:1/4=171] ^F4) |[Q:1/4=170] !fermata!G16 |] %46
w: fi\- * * *|nem.|
V:2
 (D16 | _E8) D8- | D8 z8 | C12 C4 | C4 C8 C4 | C8 z8 | D8 D4 D4 | F6 F2 F4 B,4 | C4 (D8 C4) | %9
w: Je\-|* sum||tra- di-|dit im- pi-|us|sum- mis prin-|ci- pi- bus sa-|cer- do\- *|
 D4 F4 F4 G4 | F12 F4 | (D4 E4) (F6 E2) | D4 E4 F8 || z8 F8- | F8 F4 (D4- | D2 CB, C4) D8 | %16
w: tum, et se- ni-|o- ri-|bus * po\- *|* pu- li:|Pe\-|* trus au\-|* * * * tem|
 G,6 A,2 B,2 C2 D4- | D4 D8 D4 | D16 | E8 F8- | F4 F4 F4 D4 | (_E8 D8) | !fermata!=B,16 || z16 | %24
w: se- que- ba- tur e\-|* um a|lon-|ge, ut|* vi- de- ret|fi\- *|nem.||
 z16 | z16 | z16 | z16 | z16 | z16 | z16 | z16 | z16 | z16 | z16 | z24 | z8 F8- | F8 F4 (D4- | %38
w: ||||||||||||Pe\-|* trus au\-|
 D2 CB, C4) D8 | G,6 A,2 B,2 C2 D4- | D4 D8 D4 | D16 | E8 F8- | F4 F4 F4 D4 | (_E8 D8) | %45
w: * * * * tem|se- que- ba- tur e\-|* um a|lon-|ge, ut|* vi- de- ret|fi\- *|
 !fermata!=B,16 |] %46
w: nem.|
V:3
 (=B16 | c8) A8- | A8 z8 | A12 A4 | A4 G8 G4 | G8 z8 | =B8 B4 B4 | c6 c2 c4 G4- | %8
w: Je\-|* sum||tra- di-|dit im- pi-|us|sum- mis prin-|ci- pi- bus sa\-|
 G2 A2 (B8 A2 G2) | A4 d4 d8 | d4 (d8 c4 | =B4) c4 c8 | B6 B2 c8 || z8 c8- | c8 (c4 F4) | G8 A8 | %16
w: * cer- do\- * *|tum, et se-|ni- o\- *|* ri- bus|po- pu- li:|Pe\-|* trus *|au- tem|
 z8 z4 D4- | D2 E2 F2 G2 A8 | F4 G4 A8 | c8 c8- | c4 d4 c4 =B4 | (c6 _B2 A8) | !fermata!G16 || %23
w: se\-|* que- ba- tur e-|um a lon-|ge, ut|* vi- de- ret|fi\- * *|nem.|
"^Duo" d12 d4 | d4 d4 d4 d4 | B8 A4 c4 | B4 A4 c8 | z4 B6 B2 A4 | c4 c4 (B2 c2 d4- | d4 ^c4) d8- | %30
w: Ad- du-|xe- runt au- tem|e- um ad|Ca- i- pham|prin- ci- pem|sa- cer- do\- * *|* * tum,|
 d8 z4 d4- | d4 d4 c8 | c4 c4 B4 c4 | d8 B4 c4- | c4 (B4 A2 G2 G4- | G4) ^F4 G16 | z8 c8- | %37
w: * u\-|* bi Scri-|bae et Pha- ri-|sae- i con\-|* ve\- * * *|* ne- rant.|Pe\-|
 c8 (c4 F4) | G8 A8 | z8 z4 D4- | D2 E2 F2 G2 A8 | F4 G4 A8 | c8 c8- | c4 d4 c4 =B4 | (c6 _B2 A8) | %45
w: * trus *|au- tem|se\-|* que- ba- tur e-|um a lon-|ge, ut|* vi- de- ret|fi\- * *|
 !fermata!G16 |] %46
w: nem.|
V:4
 (G,16 | C,8) D,8- | D,8 z8 | F,12 F,4 | F,4 C,8 C,4 | C,8 z8 | G,8 G,4 G,4 | F,6 F,2 F,4 _E,4- | %8
w: Je\-|* sum||tra- di-|dit im- pi-|us|sum- mis prin-|ci- pi- bus sa\-|
 E,4 D,4 _E,8 | D,8 z4 G,4 | B,12 F,4 | G,4 C,4 F,8 | G,6 G,2 F,8 || z8 F,8- | F,8 F,8 | _E,8 D,8 | %16
w: * cer- do-|tum, et|se- ni-|o- ri- bus|po- pu- li:|Pe\-|* trus|au- tem|
 z8 G,,6 A,,2 | B,,2 C,2 D,8 D,4 | D,8 D,8 | C,8 F,8- | F,4 D,4 F,4 G,4 | (C,8 D,8) | G,,16 || %23
w: se- que-|ba- tur e- um|a lon-|ge, ut|* vi- de- ret|fi\- *|nem.|
 z8 G,8- | G,4 G,4 G,4 G,4 | G,4 G,4 F,8 | D,4 F,4 E,4 F,4 | G,8 z4 F,4- | F,2 F,2 E,4 G,4 F,4 | %29
w: Ad\-|* du- xe- runt|au- tem e-|um ad Ca- i-|pham prin\-|* ci- pem sa- cer-|
 E,8 D,8 | z4 G,8 G,4 | F,8 F,4 F,4 | E,4 F,4 G,4 E,4 | F,4 (G,6 F,2 E,2 D,2 | %34
w: do- tum,|u- bi|Scri- bae et|Pha- ri- sae- i|con- ve\- * * *|
 C,4 D,4 C,2 B,,2 A,,2 G,,2 | A,,4) A,,4 G,,16 | z8 F,8- | F,8 F,8 | _E,8 D,8 | z8 G,,6 A,,2 | %40
w: |* ne- rant.|Pe\-|* trus|au- tem|se- que-|
 B,,2 C,2 D,8 D,4 | D,8 D,8 | C,8 F,8- | F,4 D,4 F,4 G,4 | (C,8 D,8) | !fermata!G,,16 |] %46
w: ba- tur e- um|a lon-|ge, ut|* vi- de- ret|fi\- *|nem.|

